X:1
T:[ID 4-19v]
T:[ID 4-19v]
T:Bezeichnung standardisiert: Polonaise Polonoise
T:Urheber unbekannt Datum in der hier transkribierten schriftlichen Quelle: 1767
C:Urheber unbekannt
C:Datum in der hier transkribierten schriftlichen Quelle: 1767
L:1/8
M:3/4
K:G
V:1 treble 
V:1
 G/A/B/c/ dddg | ed d4 | GB/d/ gbd'b | ba a4 | G/A/B/c/ dddg | ed d4 | cD/F/ Ac/f/ a2 | %7
 BD/G/ Bd/g/ b2 | cD/F/ Ac/f/ a2 | BD/G/ Bd/g/ b2 | d'2 b2 b2 | b/g/a a4 :: d/e/f/g/ aaad' | %13
 ba a4 | DF/A/ dfaf | fe e4 | d/e/f/g/ aaad' | ba a4 | ge/^c/ Ag e'2 | fd/A/ Ff d'2 | %20
 ge/^c/ Ag e'2 | fd/A/ Ff d'2 | bagfed | f/d/a/^c/{c} d4 | G/A/B/c/ ddde | =fd/B/ GB/d/ f2 | %26
 d'c'bag=f | f/d/e e4 | A/B/c/d/ eeef | ge/^c/ Ac/e/ g2 | e'd'^c'bag | g/e/f f4 | d/c/B/A/ GeAf | %33
 g/f/e/d/ cadb | e'd'c'bag | b/g/d'/f/{f} g4 :| %36

